X: 28606
T: Music At The Gate
R: strathspey
M: 4/4
K: Dmajor
D2 D2 F<d d>c|B>A B>d dA FE|D2 D2 F<d dc|(3Bcd (3AGF E2 FE|D2 D2 F<d d>c|
B>A B>d dc de|1 (3fed (3edc (3dcB (3AGF|(3GAB (3ABc (3dAF (3GFE:|2 f>de>c d>BA>F|B>dc>e d4||
f2 f>d e2 ce|d>e d>B A>F D2|f2 f>d e2 ce|d>e (3dcB A2> {efg}.a|
f2 f>d e2 ce|d>e d>B A>F D2|B>A d>A B>A d>A|(3Bcd (3AGF E2 FE||

